!!!OTL: Shang chengcheng
!!!ARE: Asia, China,ÿAnhui, Jinzhai
!! III, 564
!!!SCT: C1601
!!!YEM: Copyright 1995, estate of Helmut Schaffrath.
**kern
*ICvox
*Ivox
!! Mixed meters:  2/4; 3/4
*M2/4
*k[f#]
*G:
{8e
16e
16g
8g
8a
=1
8b
16dd
16b
4a}
=2
*M3/4
{8dd
16dd
16ee
16ee
16dd
16b
16a
16g
8e
16g
=3
*M2/4
4a
4b
=4
16a
16g
8e
4d}
=5
{8e
16e
16e
8g
8a
=6
8b
16dd
16b
4a
=7
16a
16b
16a
16g
4e}
=8
{8dd
16dd
16dd
8ee
16ee
16gg
=9
8ee
16dd
16b
4dd}
=10
*M3/4
{8dd
16dd
16ee
16ee
16dd
16b
16a
16g
8.e
=11
*M2/4
4a
4b
=12
8a
16g
16e
4d
=13
8e
16e
16g
4a}
=14
*M3/4
{8dd
16dd
16ee
16ee
16dd
16b
16a
16g
8.e
=15
*M2/4
4a
4b
=16
8a
16g
16e
4d}
==
!!!AGN: Xiaodiao. Chanong shenghuo
!!!AMT: irregular
!!!AIN: vox
!!!EED: Helmut Schaffrath
!!!EEV: 1.0
*-
